X: 23789
T: Little House Under The Hill, The
R: jig
M: 6/8
K: Gmajor
{G}A3|:GEE cEE|GEE ~G2A|~G2E cGE|DED D|
GEE cGE|~G2A c2d|{f}edc AGE|GED D:|

